X:1
T:Pacifica, 77.77.67.77
T:Pacifica, 77.77.67.77
T:Robert Lowry, 1875
T:Public Domain Courtesy of the Cyber Hymnal™
C:Robert Lowry, 1875
Z:Public Domain
Z:Courtesy of the Cyber Hymnal™
%%score ( 1 2 ) ( 3 4 )
L:1/8
Q:1/4=96
M:3/4
K:Ab
V:1 treble 
V:2 treble 
V:3 bass 
V:4 bass 
V:1
 [CA][DB] | [Ec]3 [DB] [CA][DF] | [CE]4 [CA][DB] | [Ec]3 [EA] [DG][CA] | [EB]4 [CA][DB] | %5
 [Ec]3 [EB] [FA][DF] | [CE]4 [DG][CA] | [EB]3 [EG] [EG][=DF] | E4 [Ed][Ec] | [EB]4 [Ec][DB] | %10
 [CA]4 [DB][CA] | [EG]3 [EG] [EA][Ec] | [EB]4 [Ec][DB] | [CA]3 [EG] [DF][DA] | [CE]4 [CA]E | %15
 [DF][FB] [EA]2 G2 | [CA]4 |] %17
V:2
 x2 | x6 | x6 | x6 | x6 | x6 | x6 | x6 | E4 x2 | x6 | x6 | x6 | x6 | x6 | x5 E | x4 (ED) | x4 |] %17
V:3
 [A,,A,][A,,A,] | [A,,A,]3 [A,,A,] [A,,A,][A,,A,] | [A,,A,]4 [A,,A,][A,,A,] | %3
 [A,,A,]3 [C,A,] [B,,E,][A,,A,] | [E,G,]4 [A,,A,][A,,A,] | [A,,A,]3 [C,A,] [D,A,][D,A,] | %6
 [A,,A,]4 [E,B,][E,A,] | [E,G,]3 [E,B,] [B,,B,][B,,A,] | [E,G,]4 [E,B,][E,A,] | %9
 [E,G,]4 [A,,A,][A,,E,] | [A,,E,]4 [E,G,][E,A,] | [E,B,]3 [D,B,] [C,A,][A,,A,] | %12
 [E,G,]4 [A,,A,][A,,E,] | [A,,E,]3 [C,A,] [D,A,][F,A,] | A,4 [A,,E,][C,A,] | %15
 [D,A,][B,,D] [E,C]2 [E,B,]2 | [A,,A,]4 |] %17
V:4
 x2 | x6 | x6 | x6 | x6 | x6 | x6 | x6 | x6 | x6 | x6 | x6 | x6 | x6 | A,4 x2 | x6 | x4 |] %17

